svgs/thin/retweet.svg

<svg xmlns="http://www.w3.org/2000/svg" viewBox="0 0 640 512"><!--! Font Awesome Pro 6.3.0 by @fontawesome - https://fontawesome.com License - https://fontawesome.com/license (Commercial License) Copyright 2023 Fonticons, Inc. --><path d="M312 400H144c-13.23 0-24-10.78-24-24V208h79.17c9.984 0 18.69-5.719 22.7-14.94c4.047-9.281 2.297-19.69-4.594-27.09L130.1 71.94c-9.344-10.06-26.88-10.06-36.22 0L6.719 165.1c-6.891 7.406-8.641 17.81-4.594 27.09C6.141 202.3 14.84 208 24.83 208H104v168C104 398.1 121.9 416 144 416h168C316.4 416 320 412.4 320 408S316.4 400 312 400zM24.83 192c-7.721 0-11.7-9.426-6.391-15.16L105.6 82.81c3.928-4.219 9.742-3.264 12.78 0l87.17 94.03C210.9 182.6 206.9 192 199.2 192H24.83zM605.9 318.9C601.9 309.7 593.2 304 583.2 304H504V136C504 113.9 486.1 96 464 96H296C291.6 96 288 99.59 288 104S291.6 112 296 112h168c13.23 0 24 10.78 24 24V304h-79.17c-9.984 0-18.69 5.719-22.7 14.94c-4.047 9.281-2.297 19.69 4.594 27.09l87.17 94.03C482.6 445.1 489.2 448 496 448s13.44-2.906 18.11-7.938l87.17-94.03C608.2 338.6 609.9 328.2 605.9 318.9zM589.6 335.2l-87.17 94.03c-3.375 3.625-9.406 3.625-12.78 0l-87.17-94.03C397.1 329.4 401.1 320 408.8 320h174.3C590.9 320 594.9 329.4 589.6 335.2z"/></svg>

<svg xmlns="http://www.w3.org/2000/svg" viewBox="0 0 640 512"><!-- Font Awesome Pro 6.0.0-alpha2 by @fontawesome - https://fontawesome.com License - https://fontawesome.com/license (Commercial License) --><path d="M312.023 400H144.023C130.788 400 120.023 389.219 120.023 376V208H199.195C209.179 208 217.882 202.281 221.898 193.062C225.945 183.781 224.195 173.375 217.304 165.969L130.132 71.938C120.788 61.875 103.257 61.875 93.913 71.938L6.741 165.969C-0.149 173.375 -1.899 183.781 2.148 193.062C6.163 202.281 14.866 208 24.851 208H104.023V376C104.023 398.062 121.96 416 144.023 416H312.023C316.445 416 320.023 412.406 320.023 408S316.445 400 312.023 400ZM24.851 192C17.13 192 13.154 182.574 18.46 176.844L105.632 82.812C109.56 78.594 115.374 79.549 118.413 82.812L205.585 176.844C210.896 182.576 206.913 192 199.195 192H24.851ZM605.898 318.938C601.882 309.719 593.179 304 583.195 304H504.023V136C504.023 113.938 486.085 96 464.023 96H296.023C291.601 96 288.023 99.594 288.023 104S291.601 112 296.023 112H464.023C477.257 112 488.023 122.781 488.023 136V304H408.851C398.866 304 390.163 309.719 386.148 318.938C382.101 328.219 383.851 338.625 390.741 346.031L477.913 440.063C482.585 445.094 489.179 448 496.023 448S509.46 445.094 514.132 440.062L601.304 346.031C608.195 338.625 609.945 328.219 605.898 318.938ZM589.585 335.156L502.413 429.188C499.038 432.812 493.007 432.812 489.632 429.188L402.46 335.156C397.15 329.424 401.134 320 408.851 320H583.195C590.917 320 594.894 329.426 589.585 335.156Z"/></svg>
